X: 10661
T: MISS BROWN'S REEL
C:
%R: reel
B: Elias Howe "The Musician's Companion" Part 1 1842 p.66 #1
S: http://imslp.org/wiki/The_Musician's_Companion_(Howe,_Elias)
Z: 2015 John Chambers <jc:trillian.mit.edu>
M: 2/4
L: 1/16
K: D
% - - - - - - - - - - - - - - - - - - - - - - - - -
(3(GFE) |\
D2D2 DFAF | dFAF dFAF | EFG2 GBEB | edcB AGFE |\
D2D2 DFAF | dFAF GFED | DFAg faec | d2d2d2 :|
|: (ag) |\
(fd)dd fdad | fd(3(efg) a2ed | cAAA ceAe | cdef g2eg |\
(fd)dd fdad | fd(3(efg) a2gf | gbag fed[ec] | d2d2d2 :|
% - - - - - - - - - - - - - - - - - - - - - - - - -


